X:1
T:Oleo
C:Sonny Rollins
Z:All Rights Reserved
L:1/8
M:4/4
K:Bb
V:1 treble nm="G Flute" snm="G Fl."
%%MIDI control 7 95
%%MIDI control 10 64
V:1
"Bbmaj7" z B2 G"Gm7" c3 B- |"Cm7" BG"F7" d4 ed |"Bbmaj7" z B2 G"Gm7" dedc | %3
"Cm7" BG^GA"F7" z B2 =G |"Fm7" c2 z B-"Bb7" BG B2 |"Ebmaj7" z B2 G"Ebm6" edBc | %6
"Bbmaj7" z2 z G-"Gm7" G B2 G |"Cm7" d2 z F"F7" dcAF ||"Bbmaj7" z B2 G"Gm7" c3 B- | %9
"Cm7" BG"F7" d4 ed |"Bbmaj7" z B2 G"^Gmù7" dedc |"Cm7" BG^GA"F7" z B2 =G | %12
"Fm7" c2 z B-"Bb7" BG B2 |"Ebmaj7" z B2 G"Ebm6" edBc |"Bbmaj7" z2 z G-"Eb" G B2 G |"Bb" _dBcB z4 || %16
"D7" x8 | x8 |"G7" x8 | x8 |"C7" x8 | x8 |"F7" x8 | x8 ||"Bbmaj7" z B2 G"Gm7" c3 B- | %25
"Cm7" BG"F7" d4 ed |"Bbmaj7" z B2 G"Gm7" dedc |"Cm7" BG^GA"F7" z B2 =G |"Fm7" c2 z B-"Bb7" BG B2 | %29
"Ebmaj7" z B2 G"Ebm6" edBc |"Bbmaj7" z2 z G-"Eb" G B2 G |"Bb" _dBcB z4 |] %32

